curriculum/images/exercise-icons/hot-zones.svg

<svg width="82" height="82" viewBox="0 0 82 82" fill="none" xmlns="http://www.w3.org/2000/svg">
<path d="M1 41C1 51.6087 5.21427 61.7828 12.7157 69.2843C20.2172 76.7857 30.3913 81 41 81C51.6087 81 61.7828 76.7857 69.2843 69.2843C76.7857 61.7828 81 51.6087 81 41C81 30.3913 76.7857 20.2172 69.2843 12.7157C61.7828 5.21427 51.6087 1 41 1C30.3913 1 20.2172 5.21427 12.7157 12.7157C5.21427 20.2172 1 30.3913 1 41Z" fill="#DAEDF7" stroke="#DAEDF7" stroke-linecap="round" stroke-linejoin="round"/>
<path opacity="0.15" d="M21.843 70.72C21.843 71.212 23.9273 71.6838 27.6373 72.0317C31.3474 72.3796 36.3792 72.575 41.626 72.575C46.8728 72.575 51.9047 72.3796 55.6147 72.0317C59.3247 71.6838 61.409 71.212 61.409 70.72C61.409 70.228 59.3247 69.7562 55.6147 69.4083C51.9047 69.0604 46.8728 68.865 41.626 68.865C36.3792 68.865 31.3474 69.0604 27.6373 69.4083C23.9273 69.7562 21.843 70.228 21.843 70.72Z" fill="#45413C"/>
<path d="M57.12 25.825C57.12 25.825 55.4 13.784 49.2 9.029C48.9825 8.85522 48.8203 8.62187 48.7333 8.35744C48.6463 8.09301 48.6382 7.80897 48.71 7.54C48.7636 7.32485 48.8653 7.12463 49.0073 6.9543C49.1492 6.78396 49.3279 6.64794 49.5298 6.55638C49.7318 6.46483 49.9518 6.42011 50.1735 6.42559C50.3952 6.43106 50.6128 6.48659 50.81 6.588C53.151 7.788 57.429 11.643 60.83 23.97L57.12 25.825Z" fill="#9CEB60"/>
<path d="M57.12 25.825L60.83 23.97C60.39 22.375 59.935 20.922 59.472 19.598L56.064 21.092C56.5108 22.647 56.8634 24.2275 57.12 25.825Z" fill="#6DD627"/>
<path d="M57.12 25.825C57.12 25.825 55.4 13.784 49.2 9.029C48.9825 8.85522 48.8203 8.62187 48.7333 8.35744C48.6463 8.09301 48.6382 7.80897 48.71 7.54C48.7636 7.32485 48.8653 7.12463 49.0073 6.9543C49.1492 6.78396 49.3279 6.64794 49.5298 6.55638C49.7318 6.46483 49.9518 6.42011 50.1735 6.42559C50.3952 6.43106 50.6128 6.48659 50.81 6.588C53.151 7.788 57.429 11.643 60.83 23.97L57.12 25.825Z" stroke="#45413C" stroke-linecap="round" stroke-linejoin="round"/>
<path d="M56.9819 28.8C56.3598 28.3526 55.8875 27.7276 55.6269 27.007C55.5035 26.6991 55.4433 26.3696 55.4498 26.038C55.4564 25.7064 55.5295 25.3794 55.665 25.0767C55.8005 24.7739 55.9955 24.5015 56.2384 24.2757C56.4813 24.0498 56.7672 23.8751 57.0789 23.762L60.3089 22.588C60.8794 22.38 61.5065 22.3893 62.0705 22.6141C62.6345 22.8389 63.096 23.2636 63.3669 23.807C63.8564 24.7759 64.0031 25.8821 63.7829 26.945L56.9819 28.8Z" fill="#9CEB60"/>
<path d="M58.641 25.611C58.467 25.1785 58.4192 24.7055 58.5031 24.2469C58.587 23.7883 58.7992 23.3629 59.115 23.02L57.079 23.761C56.7673 23.874 56.4814 24.0486 56.2385 24.2744C55.9956 24.5001 55.8006 24.7724 55.6652 25.0751C55.5297 25.3778 55.4565 25.7046 55.4499 26.0362C55.4434 26.3677 55.5036 26.6972 55.627 27.005C55.8872 27.7264 56.3596 28.3521 56.982 28.8L60.765 27.768C60.2692 27.5957 59.8196 27.3114 59.4513 26.9374C59.083 26.5633 58.8057 26.1095 58.641 25.611Z" fill="#E4FFD1"/>
<path d="M56.9819 28.8C56.3598 28.3526 55.8875 27.7276 55.6269 27.007C55.5035 26.6991 55.4433 26.3696 55.4498 26.038C55.4564 25.7064 55.5295 25.3794 55.665 25.0767C55.8005 24.7739 55.9955 24.5015 56.2384 24.2757C56.4813 24.0498 56.7672 23.8751 57.0789 23.762L60.3089 22.588C60.8794 22.38 61.5065 22.3893 62.0705 22.6141C62.6345 22.8389 63.096 23.2636 63.3669 23.807C63.8564 24.7759 64.0031 25.8821 63.7829 26.945L56.9819 28.8Z" stroke="#45413C" stroke-linecap="round" stroke-linejoin="round"/>
<path d="M70.064 33.125C77.483 54.145 55.845 68.982 35.444 68.982C19.282 68.982 12.044 56.956 9.73301 51.957C9.43761 51.3182 8.96559 50.7773 8.3727 50.3981C7.77981 50.0189 7.0908 49.8173 6.38701 49.817C6.06516 49.8079 5.75956 49.6736 5.53514 49.4427C5.31073 49.2118 5.18518 48.9025 5.18518 48.5805C5.18518 48.2585 5.31073 47.9492 5.53514 47.7183C5.75956 47.4874 6.06516 47.3532 6.38701 47.344C8.93055 47.3441 11.3919 48.2447 13.335 49.886C19.5286 55.0764 27.3633 57.9 35.444 57.854C43.993 57.854 59.029 50.167 54.775 36.122C54.1709 34.1266 54.369 31.9742 55.3272 30.1226C56.2854 28.271 57.9281 26.8662 59.906 26.207C61.7611 25.5887 63.7852 25.728 65.5381 26.5945C67.291 27.461 68.6308 28.9847 69.266 30.834C69.514 31.556 69.781 32.322 70.064 33.125Z" fill="#FF6242"/>
<path d="M38.921 59.941C47.471 59.941 62.506 52.254 58.253 38.208C57.6475 36.2129 57.8449 34.0602 58.8031 32.2084C59.7613 30.3567 61.4046 28.9522 63.383 28.294C64.766 27.8306 66.2553 27.7871 67.663 28.169C66.6928 27.1347 65.4464 26.4002 64.0716 26.0527C62.6968 25.7051 61.2511 25.759 59.906 26.208C57.9274 26.866 56.2839 28.2704 55.3255 30.1222C54.3671 31.9739 54.1696 34.1267 54.775 36.122C59.029 50.167 43.993 57.854 35.444 57.854C29.8747 57.8802 24.3829 56.5488 19.444 53.975C25.1792 57.8966 31.9732 59.9777 38.921 59.941Z" fill="#FFA694"/>
<path d="M70.064 33.125C77.483 54.145 55.845 68.982 35.444 68.982C19.282 68.982 12.044 56.956 9.73301 51.957C9.43761 51.3182 8.96559 50.7773 8.3727 50.3981C7.77981 50.0189 7.0908 49.8173 6.38701 49.817C6.06516 49.8079 5.75956 49.6736 5.53514 49.4427C5.31073 49.2118 5.18518 48.9025 5.18518 48.5805C5.18518 48.2585 5.31073 47.9492 5.53514 47.7183C5.75956 47.4874 6.06516 47.3532 6.38701 47.344C8.93055 47.3441 11.3919 48.2447 13.335 49.886C19.5286 55.0764 27.3633 57.9 35.444 57.854C43.993 57.854 59.029 50.167 54.775 36.122C54.1709 34.1266 54.369 31.9742 55.3272 30.1226C56.2854 28.271 57.9281 26.8662 59.906 26.207C61.7611 25.5887 63.7852 25.728 65.5381 26.5945C67.291 27.461 68.6308 28.9847 69.266 30.834C69.514 31.556 69.781 32.322 70.064 33.125Z" stroke="#45413C" stroke-linecap="round" stroke-linejoin="round"/>
</svg>

<svg xmlns="http://www.w3.org/2000/svg" width="82" height="82" fill="none" viewBox="0 0 82 82"><path fill="#daedf7" stroke="#daedf7" stroke-linecap="round" stroke-linejoin="round" d="M1 41a40 40 0 1 0 80 0 40 40 0 0 0-80 0"/><path fill="#45413c" d="M21.843 70.72c0 .492 2.084.964 5.794 1.312s8.742.543 13.989.543 10.279-.195 13.989-.543 5.794-.82 5.794-1.312-2.084-.964-5.794-1.312-8.742-.543-13.989-.543-10.279.195-13.989.543-5.794.82-5.794 1.312" opacity=".15"/><path fill="#9ceb60" d="M57.12 25.825S55.4 13.784 49.2 9.029a1.43 1.43 0 0 1-.49-1.489 1.47 1.47 0 0 1 2.1-.952c2.341 1.2 6.619 5.055 10.02 17.382z"/><path fill="#6dd627" d="m57.12 25.825 3.71-1.855a68 68 0 0 0-1.358-4.372l-3.408 1.494c.447 1.555.8 3.136 1.056 4.733"/><path stroke="#45413c" stroke-linecap="round" stroke-linejoin="round" d="M57.12 25.825S55.4 13.784 49.2 9.029a1.43 1.43 0 0 1-.49-1.489 1.47 1.47 0 0 1 2.1-.952c2.341 1.2 6.619 5.055 10.02 17.382z"/><path fill="#9ceb60" d="M56.982 28.8a3.8 3.8 0 0 1-1.355-1.793 2.474 2.474 0 0 1 1.452-3.245l3.23-1.174a2.47 2.47 0 0 1 3.058 1.219 4.8 4.8 0 0 1 .416 3.138z"/><path fill="#e4ffd1" d="M58.641 25.611a2.47 2.47 0 0 1 .474-2.591l-2.036.741a2.47 2.47 0 0 0-1.452 3.244 3.8 3.8 0 0 0 1.355 1.795l3.783-1.032a3.42 3.42 0 0 1-2.124-2.157"/><path stroke="#45413c" stroke-linecap="round" stroke-linejoin="round" d="M56.982 28.8a3.8 3.8 0 0 1-1.355-1.793 2.474 2.474 0 0 1 1.452-3.245l3.23-1.174a2.47 2.47 0 0 1 3.058 1.219 4.8 4.8 0 0 1 .416 3.138z"/><path fill="#ff6242" d="M70.064 33.125c7.419 21.02-14.219 35.857-34.62 35.857-16.162 0-23.4-12.026-25.711-17.025a3.69 3.69 0 0 0-3.346-2.14 1.237 1.237 0 0 1 0-2.473c2.544 0 5.005.9 6.948 2.542a34.12 34.12 0 0 0 22.109 7.968c8.549 0 23.585-7.687 19.331-21.732a8.006 8.006 0 0 1 5.131-9.915 7.417 7.417 0 0 1 9.36 4.627q.373 1.085.798 2.291"/><path fill="#ffa694" d="M38.921 59.941c8.55 0 23.585-7.687 19.332-21.733a8 8 0 0 1 5.13-9.914 7.4 7.4 0 0 1 4.28-.125 7.42 7.42 0 0 0-7.757-1.961 8 8 0 0 0-5.131 9.914c4.254 14.045-10.782 21.732-19.331 21.732a34.3 34.3 0 0 1-16-3.879 34.2 34.2 0 0 0 19.477 5.966"/><path stroke="#45413c" stroke-linecap="round" stroke-linejoin="round" d="M70.064 33.125c7.419 21.02-14.219 35.857-34.62 35.857-16.162 0-23.4-12.026-25.711-17.025a3.69 3.69 0 0 0-3.346-2.14 1.237 1.237 0 0 1 0-2.473c2.544 0 5.005.9 6.948 2.542a34.12 34.12 0 0 0 22.109 7.968c8.549 0 23.585-7.687 19.331-21.732a8.006 8.006 0 0 1 5.131-9.915 7.417 7.417 0 0 1 9.36 4.627q.373 1.085.798 2.291"/></svg>
